src/assets/Spanner.svg

<svg fill="none" height="18" viewBox="0 0 18 18" width="18" xmlns="http://www.w3.org/2000/svg"><path d="m7.00049 17.7771v-5.1891c-.74516-.3247-1.41851-.8345-1.94589-1.513-1.18201-1.54339-1.37334-3.62819-.492-5.36097.46172-.92583 1.21217-1.67628 2.138-2.138.24769-.12207.54745-.02023.66952.22747.03471.07042.05234.14803.05148.22653v3.97h3.162v-3.97c-.002-.27613.2203-.50157.4964-.50353.0764-.00055.1518.0164.2206.04953.9243.46243 1.6733 1.2128 2.134 2.138 1.2678 2.45009.3094 5.46407-2.1407 6.73177-.0969.0502-.1947.0968-.2934.1401v5.191c4.0077-.9097 6.9995-4.4939 6.9995-8.7769 0-4.97056-4.0294-9-9-9-4.97056 0-9 4.02944-9 9 0 4.2833 2.99227 7.8678 7.00049 8.7771z" fill="#1b2045"/></svg>

<svg xmlns="http://www.w3.org/2000/svg" width="18" height="18" viewBox="0 0 18 18" fill="none">
<path d="M7.00049 17.7771V12.588C6.25533 12.2633 5.58198 11.7535 5.0546 11.075C3.87259 9.53161 3.68126 7.44681 4.5626 5.71403C5.02432 4.7882 5.77477 4.03775 6.7006 3.57603C6.94829 3.45396 7.24805 3.5558 7.37012 3.8035C7.40483 3.87392 7.42246 3.95153 7.4216 4.03003L7.4216 8.00003H10.5836V4.03003C10.5816 3.7539 10.8039 3.52846 11.08 3.5265C11.1564 3.52595 11.2318 3.5429 11.3006 3.57603C12.2249 4.03846 12.9739 4.78883 13.4346 5.71403C14.7024 8.16412 13.744 11.1781 11.2939 12.4458C11.197 12.496 11.0992 12.5426 11.0005 12.5859V17.7769C15.0082 16.8672 18 13.283 18 9C18 4.02944 13.9706 0 9 0C4.02944 0 0 4.02944 0 9C0 13.2833 2.99227 16.8678 7.00049 17.7771Z" fill="#1B2045"/>
</svg>
